X:53
%%scale 0.6
M:6/8
K:Edor
|B,EE GFE|FAB def|g3 edB|cBA GED|B,EE GFE|FAB def|g3 edB|AGF E3:|
B,EE e3|Be^d edB|A3 Bde|fed BdB|efe gfe|afe gfe|g3 edB|AGF E3:|
